assets/svg/admin.svg

<svg width="50px" height="50px" viewBox="0 0 50 50" version="1.1" xmlns="http://www.w3.org/2000/svg" xmlns:xlink="http://www.w3.org/1999/xlink">
    <defs>
        <path d="M28.0450802,37.585609 C18.6237538,39.6749025 10.4139575,31.4651062 12.503251,22.0437798 C13.5543997,17.2973559 17.3862159,13.4655397 22.1326398,12.414391 C31.5539662,10.3250975 39.7615951,18.5327265 37.674469,27.9540529 C36.6233203,32.7026441 32.7915041,36.532293 28.0450802,37.585609 M50,26.9072388 L50,23.0927612 C50,21.8508886 48.9921977,20.8452536 47.7524924,20.8452536 L47.1348071,20.8452536 C45.697876,20.8452536 44.4408322,19.917642 43.9770264,18.556567 C43.6952752,17.7329866 43.3593411,16.935414 42.9800607,16.1660165 C42.3342003,14.8677937 42.5574339,13.3138275 43.5825748,12.2908539 L44.0247074,11.8487213 C44.9024707,10.970958 44.9024707,9.54703078 44.0247074,8.67143476 L41.3285652,5.97312527 C40.4508019,5.09536194 39.0268747,5.09536194 38.1512787,5.97312527 L37.6766363,6.44776766 C36.6579974,7.46857391 35.1105332,7.69397486 33.8144777,7.05895102 C33.0537495,6.68617252 32.2648461,6.35890767 31.4542696,6.08365843 C30.0866927,5.61985262 29.1525791,4.36280884 29.1525791,2.91937581 L29.1525791,2.24534027 C29.1525791,1.00563502 28.1469441,0 26.9072388,0 L23.0905938,0 C21.8508886,0 20.8452536,1.00563502 20.8452536,2.24534027 L20.8452536,2.98656264 C20.8452536,4.42349371 19.9198093,5.67403554 18.5630689,6.1443433 C17.7719983,6.41959254 17.0004335,6.74252276 16.2592111,7.10879931 C14.958821,7.75249241 13.4048548,7.53142609 12.3775466,6.50628522 L11.846554,5.97312527 C10.9687906,5.09536194 9.54703078,5.09536194 8.67143476,5.97312527 L5.97095795,8.67143476 C5.09536194,9.54703078 5.09536194,10.970958 5.97095795,11.8487213 L6.53662765,12.4122237 C7.5574339,13.4330299 7.78283485,14.9804941 7.14781101,16.2765496 C6.78803641,17.01127 6.47377547,17.7698309 6.20502818,18.5522323 C5.73688773,19.9133073 4.48417859,20.8452536 3.04291287,20.8452536 L2.24534027,20.8452536 C1.00346771,20.8452536 0,21.8508886 0,23.0927612 L0,26.9072388 C0,28.1491114 1.00346771,29.1525791 2.24534027,29.1525791 L3.04291287,29.1525791 C4.48417859,29.1525791 5.73688773,30.0866927 6.20502818,31.4477677 C6.47377547,32.2280017 6.78803641,32.98873 7.14781101,33.7212831 C7.78283485,35.0195059 7.5574339,36.5669701 6.53662765,37.585609 L5.97095795,38.1512787 C5.09536194,39.029042 5.09536194,40.4508019 5.97095795,41.3285652 L8.67143476,44.0268747 C9.54703078,44.9024707 10.9687906,44.9024707 11.846554,44.0268747 L12.3775466,43.4937148 C13.4048548,42.4685739 14.958821,42.2453403 16.2592111,42.8890334 C17.0004335,43.2574772 17.7719983,43.5804075 18.5630689,43.8556567 C19.9198093,44.3237971 20.8452536,45.5765063 20.8452536,47.01127 L20.8452536,47.7524924 C20.8452536,48.994365 21.8508886,50 23.0905938,50 L26.9072388,50 C28.1469441,50 29.1525791,48.994365 29.1525791,47.7524924 L29.1525791,47.0784569 C29.1525791,45.6350238 30.0866927,44.3779801 31.4542696,43.9141743 C32.2648461,43.638925 33.0537495,43.3138275 33.8144777,42.941049 C35.1105332,42.3060251 36.6579974,42.5314261 37.6766363,43.5522323 L38.1512787,44.0268747 C39.0268747,44.9024707 40.4508019,44.9024707 41.3285652,44.0268747 L44.0247074,41.3285652 C44.9024707,40.4508019 44.9024707,39.029042 44.0247074,38.1512787 L43.5825748,37.7091461 C42.5574339,36.6840052 42.3342003,35.1322063 42.9800607,33.8339835 C43.3593411,33.064586 43.6952752,32.2648461 43.9770264,31.443433 C44.4408322,30.082358 45.697876,29.1525791 47.1348071,29.1525791 L47.7524924,29.1525791 C48.9921977,29.1525791 50,28.1491114 50,26.9072388" id="path-1"></path>
    </defs>
</svg>

<svg width="50" height="50" xmlns="http://www.w3.org/2000/svg"><defs><path d="M28.045 37.586a12.945 12.945 0 01-15.542-15.542c1.051-4.747 4.883-8.578 9.63-9.63a12.944 12.944 0 0115.541 15.54c-1.05 4.749-4.882 8.578-9.629 9.632M50 26.907v-3.814a2.248 2.248 0 00-2.248-2.248h-.617c-1.437 0-2.694-.927-3.158-2.288a20.19 20.19 0 00-.997-2.391c-.646-1.298-.423-2.852.603-3.875l.442-.442a2.246 2.246 0 000-3.178l-2.696-2.698a2.246 2.246 0 00-3.178 0l-.474.475c-1.019 1.02-2.566 1.246-3.863.611-.76-.373-1.55-.7-2.36-.975-1.367-.464-2.301-1.721-2.301-3.165v-.674A2.246 2.246 0 0026.907 0h-3.816a2.246 2.246 0 00-2.246 2.245v.742c0 1.436-.925 2.687-2.282 3.157-.791.276-1.563.599-2.304.965-1.3.643-2.854.422-3.881-.603l-.531-.533a2.243 2.243 0 00-3.176 0l-2.7 2.698a2.25 2.25 0 000 3.178l.566.563c1.02 1.021 1.246 2.568.61 3.865a19.78 19.78 0 00-.942 2.275c-.468 1.361-1.72 2.293-3.162 2.293h-.798A2.245 2.245 0 000 23.093v3.814a2.243 2.243 0 002.245 2.246h.798c1.441 0 2.694.934 3.162 2.295.269.78.583 1.54.943 2.273.635 1.299.41 2.846-.611 3.865l-.566.565a2.25 2.25 0 000 3.178l2.7 2.698a2.247 2.247 0 003.176 0l.53-.533c1.028-1.025 2.582-1.249 3.882-.605.741.368 1.513.691 2.304.967 1.357.468 2.282 1.72 2.282 3.155v.741A2.246 2.246 0 0023.091 50h3.816a2.246 2.246 0 002.246-2.248v-.674c0-1.443.934-2.7 2.301-3.164.81-.275 1.6-.6 2.36-.973 1.297-.635 2.844-.41 3.863.611l.474.475a2.25 2.25 0 003.178 0l2.696-2.698c.877-.878.877-2.3 0-3.178l-.442-.442c-1.026-1.025-1.249-2.577-.603-3.875.38-.77.715-1.57.997-2.39.464-1.362 1.72-2.291 3.158-2.291h.617A2.246 2.246 0 0050 26.907" id="path-1"/></defs></svg>
